images/pattern-library/herowithjump.svg

<?xml version="1.0" encoding="UTF-8"?>
<svg width="1280px" height="574px" viewBox="0 0 1280 574" version="1.1" xmlns="http://www.w3.org/2000/svg" xmlns:xlink="http://www.w3.org/1999/xlink">
    <!-- Generator: Sketch 44.1 (41455) - http://www.bohemiancoding.com/sketch -->
    <title>herowithjump</title>
    <desc>Created with Sketch.</desc>
    <defs></defs>
    <g id="Pattern-Library" stroke="none" stroke-width="1" fill="none" fill-rule="evenodd">
        <g id="herowithjump" transform="translate(0.000000, 5.000000)">
            <g id="Header-Block-w/Linked-Statement">
                <g transform="translate(0.000000, -5.000000)">
                    <rect id="Rectangle" fill="#4A4A4A" x="0" y="0" width="1280" height="574"></rect>
                    <text id="Research/impact-stat" font-family="HelveticaNeue-Bold, Helvetica Neue" font-size="43" font-weight="bold" line-spacing="75" letter-spacing="0.716667056">
                        <tspan x="124" y="215" fill="#FFFFFF">Research/impact statement cursus magna, vel </tspan>
                        <tspan x="124" y="290" fill="#4990E2">Molecular design</tspan>
                        <tspan x="488.066673" y="290" fill="#FFFFFF">. Lorem Vivamus sagittis </tspan>
                        <tspan x="124" y="365" fill="#4990E2">Cellular design</tspan>
                        <tspan x="440.351006" y="365" fill="#FFFFFF"> set </tspan>
                        <tspan x="530.751341" y="365" fill="#4990E2">Tissue design</tspan>
                        <tspan x="822.664013" y="365" fill="#FFFFFF"> faucibus dolor </tspan>
                        <tspan x="124" y="440" fill="#FFFFFF">lorem ipsum dolor </tspan>
                        <tspan x="521.277007" y="440" fill="#4990E2">Microbic design</tspan>
                    </text>
                    <path d="M125,317 L490,317" id="Line" stroke="#4990E2" stroke-width="3" stroke-linecap="square"></path>
                    <path d="M530,391 L825,391" id="Line" stroke="#4990E2" stroke-width="3" stroke-linecap="square"></path>
                    <path d="M522,466 L858,466" id="Line-Copy-3" stroke="#4990E2" stroke-width="3" stroke-linecap="square"></path>
                    <path d="M124,391 L442,391" id="Line-Copy-2" stroke="#4990E2" stroke-width="3" stroke-linecap="square"></path>
                </g>
            </g>
            <g id="count-with-letter" transform="translate(29.000000, 187.000000)">
                <g id="Group-3">
                    <rect id="Rectangle-7" fill="#000000" x="0" y="0" width="20" height="18"></rect>
                    <g id="Group-34" transform="translate(18.000000, 0.000000)">
                        <path d="M57,23.4017629 L57,3 C57,1.34314575 55.6568542,3.66629817e-15 54,-4.4408921e-16 L54,0 L3,0 L3,-4.4408921e-16 C1.34314575,-1.39730022e-16 -6.46995335e-16,1.34314575 -4.4408921e-16,3 L0,3 L-4.4408921e-16,51 C3.43777239e-15,52.6568542 1.34314575,54 3,54 L3,54 L54,54 C55.6568542,54 57,52.6568542 57,51 L57,51 L57,29.6753855 L72.6152344,26.5385742 L57,23.4017629 Z" id="Combined-Shape" fill="#F5E900"></path>
                        <text id="CHAR" font-family="HelveticaNeue-Medium, Helvetica Neue" font-size="10" font-weight="400" line-spacing="13" letter-spacing="0.75" fill="#000000">
                            <tspan x="12.925" y="48">CHAR</tspan>
                        </text>
                        <text id="170" font-family="HelveticaNeue-CondensedBold, Helvetica Neue" font-size="13" font-style="condensed" font-weight="bold" line-spacing="13" letter-spacing="0.959999979" fill="#000000">
                            <tspan x="17.5" y="34">170</tspan>
                        </text>
                        <text id="HEADER" font-family="HelveticaNeue-Medium, Helvetica Neue" font-size="10" font-weight="400" line-spacing="13" letter-spacing="0.409090906" fill="#000000">
                            <tspan x="7.39772728" y="15">HEADER</tspan>
                        </text>
                    </g>
                    <text id="A" font-family="HelveticaNeue-Bold, Helvetica Neue" font-size="11" font-weight="bold" fill="#FFFFFF">
                        <tspan x="5.2325" y="13">A</tspan>
                    </text>
                </g>
            </g>
        </g>
    </g>
</svg>

<?xml version="1.0" encoding="utf-8"?>
<!-- Generator: Adobe Illustrator 19.2.1, SVG Export Plug-In . SVG Version: 6.00 Build 0)  -->
<svg version="1.1" id="Layer_1" xmlns="http://www.w3.org/2000/svg" xmlns:xlink="http://www.w3.org/1999/xlink" x="0px" y="0px"
	 viewBox="0 0 1280 574" style="enable-background:new 0 0 1280 574;" xml:space="preserve">
<style type="text/css">
	.st0{fill:#4A4A4A;}
	.st1{fill:#FFFFFF;}
	.st2{font-family:'HelveticaNeue-Bold';}
	.st3{font-size:43px;}
	.st4{fill:#4990E2;}
	.st5{fill:none;stroke:#4990E2;stroke-width:3;stroke-linecap:square;}
	.st6{fill:#F5E900;}
	.st7{font-family:'HelveticaNeue-Light';}
	.st8{font-size:11px;}
	.st9{letter-spacing:1;}
	.st10{font-size:13px;}
	.st11{font-family:'HelveticaNeue-Medium';}
	.st12{font-size:10px;}
</style>
<title>herowithjump</title>
<desc>Created with Sketch.</desc>
<g id="Pattern-Library">
	<g id="herowithjump" transform="translate(0.000000, 5.000000)">
		<g id="Header-Block-w_x2F_Linked-Statement">
			<g transform="translate(0.000000, -5.000000)">
				<rect id="Rectangle" class="st0" width="1280" height="574"/>
				<text transform="matrix(1 0 0 1 124 215)" class="st1 st2 st3">Research/impact statement cursus magna, vel </text>
				<text transform="matrix(1 0 0 1 124 290)" class="st4 st2 st3">Molecular design</text>
				<text transform="matrix(1 0 0 1 488.0667 290)" class="st1 st2 st3">. Lorem Vivamus sagittis </text>
				<text transform="matrix(1 0 0 1 124 365)" class="st4 st2 st3">Cellular design</text>
				<text transform="matrix(1 0 0 1 452.8511 365)" class="st1 st2 st3">set </text>
				<text transform="matrix(1 0 0 1 530.7513 365)" class="st4 st2 st3">Tissue design</text>
				<text transform="matrix(1 0 0 1 835.1641 365)" class="st1 st2 st3">faucibus dolor </text>
				<text transform="matrix(1 0 0 1 124 440)" class="st1 st2 st3">lorem ipsum dolor </text>
				<text transform="matrix(1 0 0 1 521.277 440)" class="st4 st2 st3">Microbic design</text>
				<path id="Line" class="st5" d="M125,307h365"/>
				<path id="Line_1_" class="st5" d="M530,381h295"/>
				<path id="Line-Copy-3" class="st5" d="M522,456h336"/>
				<path id="Line-Copy-2" class="st5" d="M124,381h318"/>
			</g>
		</g>
		<g id="Count" transform="translate(42.000000, 184.000000)">
			<g id="Group-34">
				<path id="Combined-Shape" class="st6" d="M57,23.4V3c0-1.7-1.3-3-3-3l0,0H3l0,0C1.3,0,0,1.3,0,3l0,0v48c0,1.7,1.3,3,3,3l0,0h51
					c1.7,0,3-1.3,3-3l0,0V29.7l15.6-3.1L57,23.4z"/>
				<text transform="matrix(1 0 0 1 12 48)" class="st7 st8 st9">CHAR</text>
				<text transform="matrix(1 0 0 1 17 34)" class="st2 st10 st9">170</text>
				<text transform="matrix(1 0 0 1 7.3977 15)" class="st11 st12">HEADER</text>
			</g>
		</g>
	</g>
</g>
</svg>
